!!!OTL: ACH GOTT WIE TRAURIG
!!!ARE: Europa, Mitteleuropa, Deutschland; France, Elsass, Weissenburg
!!!SCT: E1343
!!!YEM: Copyright 1995, estate of Helmut Schaffrath.
**kern
*ICvox
*Ivox
*M4/4
*k[b-e-a-]
*E-:
{8e-
8.e-
16g
=1
4.b-
8b-
8b-
8b-
8.cc
16b-
=2
4b-
4a-
8r}
{8a-
8a-
8g
=3
4.f
8b-
8an
8b-
8cc
8b-
=4
2g
8r}
{8ee-
8ee-
8ee-
=5
4.cc
8cc
8ff
8ee-
8.dd
16cc
=6
4cc
4b-
8r}
{8b-
8ee-
8g
=7
4f
8dd
8cc
8.b-
16a-
8cc
8b-
=8
2g
8r}
{8ee-
8ee-
8ee-
=9
4.cc
8cc
8ff
8ee-
8.dd
16cc
=10
4cc
4b-
8r}
{8b-
8ee-
8g
=11
4f
8dd
8cc
8.b-
16a-
8cc
8b-
=12
2g
8r}
==
!!!AGN: Staende -, Soldaten -, Kriegs - Lied
!!!ONB: ESAC (Essen Associative Code) Database: ERK3
!!!AMT: simple quadruple
!!!AIN: vox
!!!EED: Helmut Schaffrath
!!!EEV: 1.0
*-
